dist/img/tel.svg

<svg width="19" height="19" viewBox="0 0 19 19" fill="none" xmlns="http://www.w3.org/2000/svg">
<path d="M17.4754 12.7954C16.3121 12.7954 15.17 12.6231 14.0876 12.2842C13.5573 12.1128 12.9053 12.27 12.5816 12.585L10.4452 14.1128C7.96766 12.8599 6.44153 11.4146 5.13706 9.08502L6.70233 7.11383C7.109 6.72908 7.25486 6.16705 7.0801 5.63971C6.72089 4.60893 6.53841 3.52738 6.53841 2.42488C6.53846 1.62842 5.85451 0.980469 5.01386 0.980469H1.5246C0.683949 0.980469 0 1.62842 0 2.42483C0 11.5537 7.83936 18.9805 17.4754 18.9805C18.3161 18.9805 19 18.3325 19 17.5361V14.2397C19 13.4434 18.316 12.7954 17.4754 12.7954Z" fill="#848484"/>
</svg>

<svg width="19" height="19" fill="none" xmlns="http://www.w3.org/2000/svg"><path d="M17.475 12.795c-1.163 0-2.305-.172-3.387-.51-.53-.172-1.183-.015-1.506.3l-2.137 1.528c-2.477-1.253-4.003-2.698-5.308-5.028l1.565-1.971A1.4 1.4 0 007.08 5.64a9.745 9.745 0 01-.542-3.215c0-.797-.683-1.445-1.524-1.445h-3.49C.685.98 0 1.628 0 2.425 0 11.554 7.84 18.98 17.475 18.98c.841 0 1.525-.648 1.525-1.444V14.24c0-.797-.684-1.445-1.525-1.445z" fill="#848484"/></svg>
